!!!COA:	Josquin des Prez
!!!CDT:	~1450-1521/08/27
!!!OPR:	Missa Mon seul plaisir
!!!ONM:	3
!!!OTL:	Credo
!!!AGN:	Mass; Credo
!!!SCT:	NJE 9.2
!!!SCA:	New Josquin Edition 9.2
!!!voices:	4
!!!voices-OPR:	4
**kern	**kern
*staff2	*staff1
*Ivox	*Ivox
*I"Bassus	*I"Tenor
*I'B	*I'T
*>[A,B]	*>[A,B]
*>A	*>A
*clefF4	*clefGv2
*k[]	*k[]
*M2/1	*M2/1
*met(C|)	*met(C|)
=1-	=1-
!!LO:TX:Z=12:t=[Only T and B are extant]
0G	0r
=2	=2
1D	0r
1D	.
=3	=3
1E	0r
1C	.
=4	=4
0G	0r
=5	=5
1C	1G
1E	1G
=6	=6
1D	1A
1D	1A
=7	=7
1E	1G
1C	1c
=8	=8
1GG	0d
1GG	.
=9	=9
1C	0c
2r	.
2C/	.
=10	=10
2D\	2r
2D\	2A/
2F\	2c\
2F\	2d\
=11	=11
2C/	2e\
2C/	2e\
1GG	2d\
.	2d\
=12	=12
2.C/	1c
4D\	.
2E\	2B\
2C/	2c\
=13	=13
2D\	2A/
2F\	1d
1E	.
.	2c\
=14	=14
[0D	1.d
.	2c\
=15	=15
0D]	2B\
.	4A/
.	4G/
.	1A
=16	=16
[0GG	[0G
=17	=17
0GG]	0G]
=18	=18
1C	2r
.	2G/
2E\	2G/
2E\	2G/
=19	=19
2D\	2A/
2D\	2A/
2F\	2A/
2F\	2A/
=20	=20
2E\	2B\
2E\	2B\
2G\	2B\
2G\	2B\
=21	=21
1F	2c\
.	2c\
2A\	2c\
2A\	2c\
=22	=22
1G	1d
2D\	2r
2F\	2c\
=23	=23
2G\	2B\
2E\	2G/
1D	1A
=24	=24
1GG	0G
2r	.
[2C/	.
=25	=25
2C/]	1r
2C/	.
1GG	1G
=26	=26
1AA	1E
1AA	1C
=27	=27
0FF	0F
=28	=28
1D	0F
2D\	.
2D\	.
=29	=29
1GG	0G
1C	.
=30	=30
1D	2F/
.	2F/
1E	2G/
.	2G/
=31	=31
0D	1A
.	2d\
.	2d\
=32	=32
2r	2d\
2D\	1d
2D\	.
2D\	2d\
=33	=33
1D	2d\
.	2d\
1E	1B
=34	=34
2r	2r
2E\	2e\
2E\	2e\
2E\	2e\
=35	=35
2AA/	2e\
2AA/	2e\
2E\	1e
2E\	.
=36	=36
2F\	2c\
2F\	2d\
2E\	1e
2C/	.
=37	=37
2D\	2d\
2E\	2c\
1F	1A
=38	=38
2E\	2B\
2C/	2c\
1D	1A
=39	=39
[0AA	1A
.	1r
=40	=40
1AA]	1A
2r	2A/
[2AA/	[2A/
=41	=41
2AA/]	2A/]
2AA/	4G/
.	4F/
2AA/	2E/
2AA/	[2A/
=42	=42
1BB	2A/]
.	2G/
[1AA	1A
=43	=43
1AA]	2r
.	2A/
2A\	2c\
2G\	2d\
=44	=44
2A\	2c\
2F\	2d\
2E\	2e\
2F\	[2c\
=45	=45
1D	2c\]
.	2B\
1C	[1c
=46	=46
1r	1c]
1C	2r
.	2c\
=47	=47
1F	1c
1A	1c
=48	=48
1.G	2.d\
.	4c\
.	1d
2D\	.
=49	=49
2F\	4c\
.	4B\
2G\	4A/
.	4G/
1D	1A
=50	=50
1GG	0G
1r	.
=51	=51
1.C	0r
2BB/	.
=52	=52
2AA/	1.c
1AA	.
2GG/	2B\
=53	=53
1AA	2A/
.	2A/
1EE	2A/
.	2G/
=54	=54
0r	1A
.	1E
=55	=55
0r	0r
=56	=56
1AA	0r
1C	.
=57	=57
1E	1E
2D\	1F
2D\	.
=58	=58
1BB	1D
1BB	1D
=59	=59
1AA	1E
1r	2F/
.	2G/
=60	=60
0r	2E/
.	1F
.	2D/
=61	=61
2AA/	2.A/
2AA/	.
.	4G/
2.D\	4F/
.	4E/
.	2D/
4C/	.
=62	=62
4BB/	2.d\
4AA/	.
2GG/	.
.	4c\
2.G\	4B\
.	4A/
.	2G/
4F\	.
=63	=63
4E\	2F/
4D\	.
2E\	2G/
1D	1A
=64	=64
0GG;l	0G;l
!!LO:LB:i:g=z
=65||	=65||
*>B	*>B
*clefF4	*clefGv2
*k[]	*k[]
*M2/1	*M2/1
*met(C|)	*met(C|)
!!section: Et incarnatus
!!!OMD: Et incarnatus
0G	0r
=66	=66
1D	0r
1D	.
=67	=67
1E	0G
1E	.
=68	=68
0D	1A
.	1A
=69	=69
0r	1G
.	1c
=70	=70
0r	0d
=71	=71
1C	1c
2C/	2r
2C/	2c\
=72	=72
1G	2d\
.	2G/
1E	2.B\
.	4c\
=73	=73
1D	1d
2r	1G
2C/	.
=74	=74
2F\	2r
2F\	2A/
2F\	2A/
2D\	2A/
=75	=75
2E\	2G/
2C/	2E/
1r	1F
=76	=76
0r	2E/
.	2E/
.	2F/
.	2D/
=77	=77
0r	2G/
.	2A/
.	1G
=78	=78
1C	0r
2F\	.
[2E\	.
=79	=79
2E\]	1E
2C/	.
2D\	2F/
[2E\	[2G/
=80	=80
2E\]	2G/]
4D\	4F/
4C/	4E/
2BB/	2D/
2AA/	[2E/
=81	=81
2C/	2E/]
2D\	2F/
1BB	1D
=82	=82
1AA	1E
2r	2r
2A\	2c\
=83	=83
2G\	2d\
2G\	2e\
2F\	2f\
2F\	2d\
=84	=84
2E\	2e\
2D\	2f\
2E\	1e
2E\	.
=85	=85
2AA/	2r
2D\	2A/
2E\	2G/
[2F\	2F/
=86	=86
2F\]	4F/
.	4G/
4E\	4A/
4D\	4B\
2.C/	1c
4D\	.
=87	=87
4E\	1B
4F\	.
4G\	.
4E\	.
1F	1A
=88	=88
1E	1B
1AA	2r
.	2A/
=89	=89
2r	2G/
2AA/	2A/
2D\	2F/
2C/	2E/
=90	=90
4AA/	1A
4BB/	.
4C/	.
4D\	.
2E\	2G/
4C/	[2c\
4D\	.
=91	=91
4E\	2c\]
4F\	.
1G	1B
4F\	4A/
4E\	4G/
=92	=92
1D	2.F/
.	4E/
1C	1G
=93	=93
0r	2r
.	2D/
.	2G/
.	2A/
=94	=94
0r	2B\
.	2c\
.	1d
=95	=95
1r	2c\
.	2B\
1D	1A
=96	=96
2E\	1G
2E\	.
2F\	1r
2F\	.
=97	=97
1G	0r
2G\	.
2F\	.
=98	=98
2E\	0r
4D\	.
4C/	.
1D	.
=99	=99
1C	1r
1r	1c
=100	=100
1.C	1c
.	1c
4BB/	.
4AA/	.
=101	=101
2GG/	1.d
2G\	.
2G\	.
[2A\	[2c\
=102	=102
2A\]	2c\]
4G\	4B\
4F\	4A/
2E\	2c\
2D\	2d\
=103	=103
1E	1B
1AA	1A
=104	=104
1r	1r
2r	2r
2A\	2A/
=105	=105
2.A\	2.c\
4A\	4c\
2E\	2B\
2G\	2B\
=106	=106
2F\	2r
2F\	2A/
1E	2B\
.	2B\
=107	=107
2r	2c\
2A\	2A/
2G\	2B\
2E\	2c\
=108	=108
2F\	1A
2F\	.
2E\	2B\
2C/	2c\
=109	=109
2.G\	2B\
.	1G
4F\	.
2E\	.
2D\	[2A/
=110	=110
2E\	4A/]
.	4G/
2C/	1G
1D	.
.	2F/
=111	=111
*M3/1	*M3/1
*met(3)	*met(3)
1C	1G
1r	1r
1C	1G
=112	=112
0AA	0c
1AA	1c
=113	=113
1GG	1d
1D	1d
1E	1B
=114	=114
1C	1c
1D	1A
1E	1G
=115	=115
1AA	0c
1D	.
1D	1B
=116	=116
1C	1c
1D	0A
1D	.
=117	=117
1GG	0G
1r	.
1D	1F
=118	=118
1C	1G
1E	1E
1D	1F
=119	=119
1C	1G
2C/	2r
2BB/	2G/
1AA	2E/
.	2F/
=120	=120
1GG	1G
1G	1G
1F	1A
=121	=121
1G	2G/
.	2G/
1E	1B
1F	1A
=122	=122
1D	1B
1E	2G/
.	2G/
1C	1A
=123	=123
1E	1G
0D	0A
=124	=124
*M2/1	*M2/1
*met(C|)	*met(C|)
1GG	0G
2r	.
2GG/	.
=125	=125
2C/	0r
2C/	.
2BB/	.
2BB/	.
=126	=126
2AA/	0r
2AA/	.
2GG/	.
[2G\	.
=127	=127
2G\]	1r
2F\	.
2G\	2r
2E\	2G/
=128	=128
2F\	2A/
2D\	2F/
1E	2G/
.	2G/
=129	=129
2D\	2A/
2F\	2F/
1E	1G
=130	=130
1D	1A
2BB/	1G
[2C/	.
=131	=131
2C/]	0r
4BB/	.
4AA/	.
1GG	.
=132	=132
2r	0r
2G\	.
2G\	.
2G\	.
=133	=133
2E\	0r
2F\	.
2D\	.
4F\	.
4E\	.
=134	=134
4D\	0r
4C/	.
2E\	.
1D	.
=135	=135
1C	2r
.	2G/
1r	1c
=136	=136
0r	2A/
.	2A/
.	2.d\
.	4c\
=137	=137
0r	4B\
.	4A/
.	1G
.	2c\
=138	=138
0r	2B\
.	2A/
.	1d
=139	=139
1r	2c\
.	2B\
1D	1A
=140	=140
2E\	1G
2E\	.
2F\	1r
2F\	.
=141	=141
2G\	0r
4F\	.
4E\	.
2D\	.
2F\	.
=142	=142
2E\	0r
2C/	.
4G\	.
4F\	.
4E\	.
4D\	.
=143	=143
2C/	0r
2E\	.
4D\	.
4C/	.
4BB/	.
4AA/	.
=144	=144
2GG/	0r
2.G\	.
4F\	.
[2E\	.
=145	=145
2E\]	0r
4D\	.
4C/	.
1D	.
=146	=146
1C	0G
1r	.
=147	=147
0C	1G
.	1G
=148	=148
1C	1E
1AA	1F
=149	=149
1GG	2D/
.	1G
2r	.
2C/	[2E/
=150	=150
4C/	4E/]
4BB/	4D/
4AA/	1G
4GG/	.
2AA/	.
2AA/	2F#i/
=151	=151
1GG	0G
2r	.
2GG/	.
=152	=152
2GG/	0r
2GG/	.
2G\	.
2G\	.
=153	=153
2.C/	0r
4D\	.
2E\	.
2F\	.
=154	=154
1G	0r
2r	.
2G\	.
=155	=155
1F	0r
1E	.
=156	=156
1D	4D/
.	4E/
.	4F/
.	4G/
2r	4A/
.	4G/
2D\	[2B\
=157	=157
1C	2B\]
.	1A
1BB	.
.	2G/
=158	=158
1AA	1A
1E	2r
.	2G/
=159	=159
1F	2A/
.	2A/
2E\	2B\
2C/	2c\
=160	=160
1D	1A
1GG	2.G/
.	4F/
=161	=161
2AA/	2E/
2BB/	2D/
1AA	1E
=162	=162
1D	1r
1GG	1D
=163	=163
2r	2G/
2GG/	2G/
2GG/	2G/
2GG/	2A/
=164	=164
2G\	1.B
4F\	.
4E\	.
1D	.
.	4A/
.	4B\
=165	=165
1C	1.c
1r	.
.	4B\
.	4A/
=166	=166
2r	2G/
2GG/	2D/
2BB-/	2F/
2BB-i/	2G/
=167	=167
2AA/	2r
2AA/	2A/
4GG/	2B\
4G\	.
2F\	2c\
=168	=168
2D\	2d\
2E\	2G/
1D	1A
=169	=169
0GG;l	0G;l
==	==
*-	*-
!!!RDF**kern: l=long note in original notation
!!!RDF**kern: i=editorial accidental
!!!RDF**kern: V=start of tuplet marker
!!!RDF**kern: Z=end of tuplet marker
!!!ENC:	Reinier de Valk; Victoria Chang 2012/03/28
!!!END:	2012/03/28/
!!!EED:	Jesse Rodin
!!!EEV:	2012/06/27/
!!attribution-level@Jos: 4 (questionable)
!!!ONB:	Translated from MusicXML and edited on 2012/06/27/ by Craig Sapp
!!muse2ps: T^@{OPR}^u^@{ONM}{. }@{OTL}^C^@{COA}?\n@{SCT}^i2I150v95,150Q8
